res/skins/Tango/buttons/btn_wave_on.svg

<?xml version="1.0" encoding="UTF-8" standalone="no"?>
<!-- Created with Inkscape (http://www.inkscape.org/) -->

<svg
   xmlns:dc="http://purl.org/dc/elements/1.1/"
   xmlns:cc="http://creativecommons.org/ns#"
   xmlns:rdf="http://www.w3.org/1999/02/22-rdf-syntax-ns#"
   xmlns:svg="http://www.w3.org/2000/svg"
   xmlns="http://www.w3.org/2000/svg"
   xmlns:inkscape="http://www.inkscape.org/namespaces/inkscape"
   version="1.1"
   width="30"
   height="20"
   id="svg2">
  <metadata
     id="metadata136">
    <rdf:RDF>
      <cc:Work
         rdf:about="">
        <dc:format>image/svg+xml</dc:format>
        <dc:type
           rdf:resource="http://purl.org/dc/dcmitype/StillImage" />
        <dc:title></dc:title>
      </cc:Work>
    </rdf:RDF>
  </metadata>
  <defs
     id="defs4">
    <inkscape:path-effect
       effect="spiro"
       id="path-effect3115" />
    <linearGradient
       id="v">
      <stop
         id="stop7"
         style="stop-color:#ffb401;stop-opacity:1"
         offset="0" />
      <stop
         id="stop9"
         style="stop-color:#c68c00;stop-opacity:1"
         offset="1" />
    </linearGradient>
    <linearGradient
       id="i">
      <stop
         id="stop12"
         style="stop-color:#b0b0b0;stop-opacity:1"
         offset="0" />
      <stop
         id="stop14"
         style="stop-color:#585858;stop-opacity:0"
         offset="1" />
    </linearGradient>
    <linearGradient
       id="e">
      <stop
         id="stop17"
         style="stop-color:#e90808;stop-opacity:1"
         offset="0" />
      <stop
         id="stop19"
         style="stop-color:#b60000;stop-opacity:1"
         offset="1" />
    </linearGradient>
    <linearGradient
       id="c">
      <stop
         id="stop22"
         style="stop-color:#eece33;stop-opacity:0.95054942"
         offset="0" />
      <stop
         id="stop24"
         style="stop-color:#ff734e;stop-opacity:0.8186813"
         offset="0.61061949" />
      <stop
         id="stop26"
         style="stop-color:#ff2d2d;stop-opacity:0"
         offset="1" />
    </linearGradient>
    <linearGradient
       id="d">
      <stop
         id="stop29"
         style="stop-color:#060606;stop-opacity:1"
         offset="0" />
      <stop
         id="stop31"
         style="stop-color:#343434;stop-opacity:1"
         offset="1" />
    </linearGradient>
    <linearGradient
       id="a">
      <stop
         id="stop34"
         style="stop-color:#060606;stop-opacity:1"
         offset="0" />
      <stop
         id="stop36"
         style="stop-color:#2a2a2a;stop-opacity:1"
         offset="1" />
    </linearGradient>
    <linearGradient
       id="b">
      <stop
         id="stop39"
         style="stop-color:#060606;stop-opacity:1"
         offset="0" />
      <stop
         id="stop41"
         style="stop-color:#2a2a2a;stop-opacity:1"
         offset="1" />
    </linearGradient>
    <linearGradient
       id="f">
      <stop
         id="stop44"
         style="stop-color:#eece33;stop-opacity:0.95054942"
         offset="0" />
      <stop
         id="stop46"
         style="stop-color:#ff734e;stop-opacity:0.8186813"
         offset="0.61061949" />
      <stop
         id="stop48"
         style="stop-color:#ff2d2d;stop-opacity:0"
         offset="1" />
    </linearGradient>
    <linearGradient
       id="g">
      <stop
         id="stop51"
         style="stop-color:#e90808;stop-opacity:1"
         offset="0" />
      <stop
         id="stop53"
         style="stop-color:#b60000;stop-opacity:1"
         offset="1" />
    </linearGradient>
    <linearGradient
       x1="16.8985"
       y1="20.7381"
       x2="9.2021799"
       y2="-2.3512399"
       id="h"
       gradientUnits="userSpaceOnUse">
      <stop
         id="stop56"
         style="stop-color:#060606;stop-opacity:1"
         offset="0" />
      <stop
         id="stop58"
         style="stop-color:#343434;stop-opacity:1"
         offset="1" />
    </linearGradient>
    <linearGradient
       x1="16.8985"
       y1="20.7381"
       x2="9.2021799"
       y2="-2.3512399"
       id="j"
       gradientUnits="userSpaceOnUse">
      <stop
         id="stop61"
         style="stop-color:#060606;stop-opacity:0"
         offset="0" />
      <stop
         id="stop63"
         style="stop-color:#ffffff;stop-opacity:0"
         offset="0.34285715" />
      <stop
         id="stop65"
         style="stop-color:#ffffff;stop-opacity:1"
         offset="1" />
    </linearGradient>
    <linearGradient
       id="k">
      <stop
         id="stop68"
         style="stop-color:#7c7c7c;stop-opacity:0"
         offset="0" />
      <stop
         id="stop70"
         style="stop-color:#ffffff;stop-opacity:1"
         offset="1" />
    </linearGradient>
    <linearGradient
       id="l">
      <stop
         id="stop73"
         style="stop-color:#eece33;stop-opacity:0.95054942"
         offset="0" />
      <stop
         id="stop75"
         style="stop-color:#ff734e;stop-opacity:0.8186813"
         offset="0.61061949" />
      <stop
         id="stop77"
         style="stop-color:#ff2d2d;stop-opacity:0"
         offset="1" />
    </linearGradient>
    <linearGradient
       id="m">
      <stop
         id="stop80"
         style="stop-color:#e90808;stop-opacity:1"
         offset="0" />
      <stop
         id="stop82"
         style="stop-color:#b60000;stop-opacity:1"
         offset="1" />
    </linearGradient>
    <linearGradient
       x1="16.8985"
       y1="20.7381"
       x2="9.2021799"
       y2="-2.3512399"
       id="n"
       gradientUnits="userSpaceOnUse">
      <stop
         id="stop85"
         style="stop-color:#060606;stop-opacity:0"
         offset="0" />
      <stop
         id="stop87"
         style="stop-color:#ffffff;stop-opacity:0"
         offset="0.34285715" />
      <stop
         id="stop89"
         style="stop-color:#ffffff;stop-opacity:1"
         offset="1" />
    </linearGradient>
    <linearGradient
       id="o">
      <stop
         id="stop92"
         style="stop-color:#e90808;stop-opacity:1"
         offset="0" />
      <stop
         id="stop94"
         style="stop-color:#b60000;stop-opacity:1"
         offset="1" />
    </linearGradient>
    <linearGradient
       id="p">
      <stop
         id="stop97"
         style="stop-color:#eece33;stop-opacity:0.95054942"
         offset="0" />
      <stop
         id="stop99"
         style="stop-color:#e85708;stop-opacity:0.95686275"
         offset="0.51428574" />
      <stop
         id="stop101"
         style="stop-color:#e80808;stop-opacity:0"
         offset="1" />
    </linearGradient>
    <linearGradient
       id="q">
      <stop
         id="stop104"
         style="stop-color:#e90808;stop-opacity:1"
         offset="0" />
      <stop
         id="stop106"
         style="stop-color:#b60000;stop-opacity:1"
         offset="1" />
    </linearGradient>
    <linearGradient
       id="r">
      <stop
         id="stop109"
         style="stop-color:#33aaee;stop-opacity:0.95054942"
         offset="0" />
      <stop
         id="stop111"
         style="stop-color:#4ebeff;stop-opacity:0.8186813"
         offset="0.61061949" />
      <stop
         id="stop113"
         style="stop-color:#2db2ff;stop-opacity:0"
         offset="1" />
    </linearGradient>
    <linearGradient
       id="s">
      <stop
         id="stop116"
         style="stop-color:#0897e9;stop-opacity:1"
         offset="0" />
      <stop
         id="stop118"
         style="stop-color:#0074b6;stop-opacity:1"
         offset="1" />
    </linearGradient>
    <linearGradient
       id="t">
      <stop
         id="stop121"
         style="stop-color:#e90808;stop-opacity:1"
         offset="0" />
      <stop
         id="stop123"
         style="stop-color:#b60000;stop-opacity:1"
         offset="1" />
    </linearGradient>
    <linearGradient
       id="u">
      <stop
         id="stop126"
         style="stop-color:#0897e9;stop-opacity:1"
         offset="0" />
      <stop
         id="stop128"
         style="stop-color:#0074b6;stop-opacity:1"
         offset="1" />
    </linearGradient>
    <inkscape:path-effect
       effect="spiro"
       id="path-effect3115-3" />
  </defs>
  <path
     d="M 23.375042,16.75 22.1831,15.916973 22.1875,10.96875 20.963388,11.712468 20.09375,16.09375 17.43842,15.28033 15.9375,12.96875 l -1,-0.408852 -0.84375,1.158852 -1.505969,0.574087 L 11.433058,12.419575 10.03125,11.9375 8.5,13.8125 7.1875,16.3125 6.5,16.0625 5.9375,14.3125 5.03125,15.4375 4.25,14.75 3.5,15 2.5625,9.75 l 24.875,0 -0.860755,5.319544 -1.78125,0.4375 z"
     id="path3113-6-6"
     style="fill:#9b9b9b;fill-opacity:1;stroke:#ffffff;stroke-width:0.5;stroke-linecap:butt;stroke-linejoin:miter;stroke-miterlimit:4;stroke-opacity:1;stroke-dasharray:none" />
  <path
     d="M 23.375,2.75 22.183058,3.5830267 22.1875,8.53125 20.963388,7.7875316 20.09375,3.40625 17.43842,4.2196699 15.9375,6.53125 l -1,0.4088519 L 14.09375,5.78125 12.587781,5.2071629 11.433058,7.0804248 10.03125,7.5625 8.5,5.6875 7.1875,3.1875 6.5,3.4375 5.9375,5.1875 5.03125,4.0625 4.25,4.75 3.5,4.5 2.5625,9.75 l 24.875,0 -0.860755,-5.3195437 -1.78125,-0.4375 z"
     id="path3113-6"
     style="fill:#9b9b9b;fill-opacity:1;stroke:#ffffff;stroke-width:0.5;stroke-linecap:butt;stroke-linejoin:miter;stroke-miterlimit:4;stroke-opacity:1;stroke-dasharray:none" />
  <path
     d="m 1,9 h 28 v 1 H 1 z"
     id="path130"
     style="fill:#ffffff;fill-opacity:1" />
</svg>

<!-- Created with Inkscape (http://www.inkscape.org/) -->
<svg id="svg2" width="30" height="20" version="1.1" xmlns="http://www.w3.org/2000/svg"><path id="path3113-6-6" d="m23.375 16.75-1.1919-0.83303 0.0044-4.9482-1.2241 0.74372-0.86964 4.3813-2.6553-0.81342-1.5009-2.3116-1-0.40885-0.84375 1.1589-1.506 0.57409-1.1547-1.8733-1.4018-0.48208-1.5312 1.875-1.3125 2.5-0.6875-0.25-0.5625-1.75-0.90625 1.125-0.78125-0.6875-0.75 0.25-0.9375-5.25h24.875l-0.86076 5.3195-1.7812 0.4375z" fill="#9b9b9b" stroke="#fff" stroke-width=".5"/><path id="path3113-6" d="m23.375 2.75-1.1919 0.83303 0.004442 4.9482-1.2241-0.74372-0.86964-4.3813-2.6553 0.81342-1.5009 2.3116-1 0.40885-0.84375-1.1589-1.506-0.57409-1.1547 1.8733-1.4018 0.48208-1.5312-1.875-1.3125-2.5-0.6875 0.25-0.5625 1.75-0.90625-1.125-0.78125 0.6875-0.75-0.25-0.9375 5.25h24.875l-0.86076-5.3195-1.7812-0.4375z" fill="#9b9b9b" stroke="#fff" stroke-width=".5"/><path id="path130" d="m1 9h28v1h-28z" fill="#fff"/></svg>
